X: 6
M: 6/8
L: 1/8
K: G
dBd efg | dBG G2B/c/ | dBd ecB | AFD D2 B/c/ |\
dBd gab | afd def | geg fdf | ed^c d2 :|
|: f/g/ |\
afd gdB | ecA dBG | gfe dcB | AFD D2 B/c/ |\
dBd efg | dBG GAB | cac BgB | AGF G2 :|


